X:1
T: Lady Mary Dundas
C:
R:Reel
Q: 232
K:F
M:4/4
L:1/8
|:f|cF FF c2 Ac|df ef cA Af|cF FF c2 Ac|df cA GG Gf|
cF FF c2 Ac|df ef cA Af|cF FF c2 Ac|df cA GG Gg|
((3fga) ga fd df|cf Af cA Ac|((3fga) ga fd df|cf cA GG Gg|
((3fga) ga fd df|cf Af cA Ac|fa ga fg df|1cd Af GG G:|2cd Af GG F2||
